usr/share/icons/biglinux-icons-material/scalable/mimetypes/application-json.svg

<svg width="24" height="24" viewBox="0 0 24 24" fill="none" xmlns="http://www.w3.org/2000/svg">
<rect x="1" y="1" width="22" height="22" rx="6.6" fill="url(#paint0_radial_1_68)"/>
<path fill-rule="evenodd" clip-rule="evenodd" d="M11.9865 15.91C15.5263 20.7355 18.9905 14.5631 18.9854 10.8513C18.9794 6.4627 14.5313 4.0099 11.9836 4.0099C7.8944 4.0099 4 7.3895 4 12.0135C4 17.1531 8.464 20 11.9836 20C11.1872 19.8853 8.533 19.3166 8.4973 13.2033C8.47331 9.0686 9.8461 7.4167 11.9778 8.1434C12.0255 8.16111 14.3292 9.06985 14.3292 12.0385C14.3292 14.9945 11.9865 15.91 11.9865 15.91Z" fill="url(#paint1_linear_1_68)"/>
<path fill-rule="evenodd" clip-rule="evenodd" d="M11.9823 8.1401C9.6433 7.33391 6.778 9.2617 6.778 13.123C6.778 19.4278 11.4501 20 12.0164 20C16.1056 20 20 16.6204 20 11.9964C20 6.8568 15.536 4.0099 12.0164 4.0099C12.9912 3.8749 17.2705 5.0649 17.2705 10.9136C17.2705 14.7277 14.0752 16.8041 11.997 15.9169C11.9493 15.8992 9.6456 14.9904 9.6456 12.0218C9.6456 9.0658 11.9823 8.1401 11.9823 8.1401Z" fill="url(#paint2_linear_1_68)"/>
<defs>
<radialGradient id="paint0_radial_1_68" cx="0" cy="0" r="1" gradientUnits="userSpaceOnUse" gradientTransform="translate(17.5 1) rotate(116.565) scale(24.5967)">
<stop stop-color="#FAFAFA"/>
<stop offset="1" stop-color="#BBBBBB"/>
</radialGradient>
<linearGradient id="paint1_linear_1_68" x1="11.4927" y1="4.0099" x2="11.4927" y2="20" gradientUnits="userSpaceOnUse">
<stop/>
<stop offset="1" stop-color="#B5B5B5"/>
</linearGradient>
<linearGradient id="paint2_linear_1_68" x1="13.389" y1="3.99999" x2="13.389" y2="20" gradientUnits="userSpaceOnUse">
<stop stop-color="#B5B5B5"/>
<stop offset="1"/>
</linearGradient>
</defs>
</svg>

<svg xmlns="http://www.w3.org/2000/svg" width="24" height="24" fill="none"><rect width="22" height="22" x="1" y="1" fill="url(#a)" rx="6.6"/><path fill="url(#b)" fill-rule="evenodd" d="M11.986 15.91c3.54 4.825 7.005-1.347 7-5.059-.007-4.388-4.455-6.841-7.002-6.841C7.894 4.01 4 7.39 4 12.014 4 17.154 8.464 20 11.984 20c-.797-.115-3.451-.683-3.487-6.797-.024-4.134 1.35-5.786 3.48-5.06.048.018 2.352.927 2.352 3.896 0 2.956-2.343 3.871-2.343 3.871Z" clip-rule="evenodd"/><path fill="url(#c)" fill-rule="evenodd" d="M11.982 8.14c-2.339-.806-5.204 1.122-5.204 4.983 0 6.305 4.672 6.877 5.238 6.877C16.106 20 20 16.62 20 11.996c0-5.14-4.464-7.986-7.984-7.986.975-.135 5.254 1.055 5.254 6.904 0 3.814-3.195 5.89-5.273 5.003-.048-.018-2.351-.927-2.351-3.895 0-2.956 2.336-3.882 2.336-3.882Z" clip-rule="evenodd"/><defs><linearGradient id="b" x1="11.493" x2="11.493" y1="4.01" y2="20" gradientUnits="userSpaceOnUse"><stop/><stop offset="1" stop-color="#B5B5B5"/></linearGradient><linearGradient id="c" x1="13.389" x2="13.389" y1="4" y2="20" gradientUnits="userSpaceOnUse"><stop stop-color="#B5B5B5"/><stop offset="1"/></linearGradient><radialGradient id="a" cx="0" cy="0" r="1" gradientTransform="rotate(116.565 8.441 5.908) scale(24.5967)" gradientUnits="userSpaceOnUse"><stop stop-color="#FAFAFA"/><stop offset="1" stop-color="#BBB"/></radialGradient></defs></svg>
